local/share/icons/dracula-icons-main/scalable/mimetypes/application-x-smb-workgroup.svg

<svg width="64" height="64" version="1.1" viewBox="0 0 64 64" xmlns="http://www.w3.org/2000/svg">
 <defs>
  <linearGradient id="a" x1="49.571" x2="51.714" y1="52.714" y2="54.857" gradientTransform="matrix(2.3333,0,0,2.3333,-68.667,-72.001)" gradientUnits="userSpaceOnUse">
   <stop offset="0"/>
   <stop stop-opacity="0" offset="1"/>
  </linearGradient>
 </defs>
 <g transform="scale(1)">
  <rect x="8" y="4" width="48" height="56" ry="5" fill="#3b549d" style="paint-order:stroke fill markers"/>
  <path d="m56 46-14 14h9c2.77 0 5-2.23 5-5z" fill="url(#a)" fill-rule="evenodd" opacity=".15" stroke-width="8.8191" style="paint-order:stroke fill markers"/>
 </g>
 <path d="m21 21v22h22v-22zm1 1h20v3h-20zm17 5h3v1h-3zm-17 4h20v2h-20zm17 4h3v1h-3zm-17 4h20v3h-20z" fill="#c1cae7" stroke-width="2"/>
</svg>

<?xml version="1.0" encoding="UTF-8"?>
<svg xmlns="http://www.w3.org/2000/svg" xmlns:xlink="http://www.w3.org/1999/xlink" width="64" height="64" viewBox="0 0 64 64">
<defs>
<filter id="filter-remove-color" x="0%" y="0%" width="100%" height="100%">
<feColorMatrix color-interpolation-filters="sRGB" values="0 0 0 0 1 0 0 0 0 1 0 0 0 0 1 0 0 0 1 0" />
</filter>
<mask id="mask-0">
<g filter="url(#filter-remove-color)">
<rect x="-6.4" y="-6.4" width="76.8" height="76.8" fill="rgb(0%, 0%, 0%)" fill-opacity="0.15"/>
</g>
</mask>
<linearGradient id="linear-pattern-0" gradientUnits="userSpaceOnUse" x1="49.570999" y1="52.714001" x2="51.714001" y2="54.856998" gradientTransform="matrix(2.3333, 0, 0, 2.3333, -68.667, -72.000999)">
<stop offset="0" stop-color="rgb(0%, 0%, 0%)" stop-opacity="1"/>
<stop offset="1" stop-color="rgb(0%, 0%, 0%)" stop-opacity="0"/>
</linearGradient>
<clipPath id="clip-0">
<rect x="0" y="0" width="64" height="64"/>
</clipPath>
<g id="source-1867" clip-path="url(#clip-0)">
<path fill-rule="evenodd" fill="url(#linear-pattern-0)" d="M 56 46 L 42 60 L 51 60 C 53.769531 60 56 57.769531 56 55 Z M 56 46 "/>
</g>
</defs>
<path fill-rule="nonzero" fill="rgb(23.137255%, 32.941176%, 61.568627%)" fill-opacity="1" d="M 13 4 L 51 4 C 53.761719 4 56 6.238281 56 9 L 56 55 C 56 57.761719 53.761719 60 51 60 L 13 60 C 10.238281 60 8 57.761719 8 55 L 8 9 C 8 6.238281 10.238281 4 13 4 Z M 13 4 "/>
<g mask="url(#mask-0)">
<use xlink:href="#source-1867"/>
</g>
<path fill-rule="nonzero" fill="rgb(75.686275%, 79.215686%, 90.588235%)" fill-opacity="1" d="M 21 21 L 21 43 L 43 43 L 43 21 Z M 22 22 L 42 22 L 42 25 L 22 25 Z M 39 27 L 42 27 L 42 28 L 39 28 Z M 22 31 L 42 31 L 42 33 L 22 33 Z M 39 35 L 42 35 L 42 36 L 39 36 Z M 22 39 L 42 39 L 42 42 L 22 42 Z M 22 39 "/>
</svg>
